common/resources/fonts/svg/number.svg

<?xml version="1.0" encoding="UTF-8" standalone="no"?>
<svg width="1024px" height="1024px" viewBox="0 0 1024 1024" version="1.1" xmlns="http://www.w3.org/2000/svg" xmlns:xlink="http://www.w3.org/1999/xlink">
    <!-- Generator: Sketch 3.7.1 (28215) - http://www.bohemiancoding.com/sketch -->
    <title>number</title>
    <desc>Created with Sketch.</desc>
    <defs></defs>
    <g id="Page-1" stroke="none" stroke-width="1" fill="none" fill-rule="evenodd">
        <g id="number" fill="#000000">
            <path d="M951.875,417.125 L972,306.4375 L753.5,306.4375 L792.3125,86.5 L681.625,86.5 L641.375,307.875 L454.5,307.875 L493.3125,87.9375 L382.625,87.9375 L343.8125,307.875 L123.875,307.875 L103.75,418.5625 L322.25,418.5625 L289.1875,606.875 L72.125,606.875 L52,716.125 L270.5,716.125 L231.6875,936.0625 L342.375,936.0625 L382.625,716.125 L569.5,716.125 L530.6875,936.0625 L641.375,936.0625 L680.1875,716.125 L900.125,716.125 L920.25,605.4375 L700.3125,605.4375 L733.375,417.125 L951.875,417.125 L951.875,417.125 Z M622.6875,417.125 L589.625,605.4375 L401.3125,605.4375 L434.375,417.125 L622.6875,417.125 L622.6875,417.125 Z" id="Shape"></path>
        </g>
    </g>
</svg>

<svg width="1024" height="1024" viewBox="0 0 1024 1024">
    <path d="M951.875 417.125L972 306.437H753.5L792.313 86.5H681.625l-40.25 221.375H454.5l38.813-219.938H382.625l-38.813 219.938H123.875L103.75 418.563h218.5l-33.063 188.312H72.125L52 716.125h218.5l-38.813 219.938h110.688l40.25-219.938H569.5l-38.813 219.938h110.688l38.813-219.938h219.937l20.125-110.688H700.312l33.063-188.312h218.5zm-329.188 0l-33.062 188.313H401.312l33.063-188.313h188.313z" fill-rule="evenodd"/>
</svg>
